packages/webapp/public/images/template-logos/front.svg

<svg width="62" height="62" viewBox="0 0 62 62" fill="none" xmlns="http://www.w3.org/2000/svg">
<path d="M46.1758 12.9423C46.0751 12.8417 45.9458 12.7842 45.802 12.7842H34.0584C33.9434 12.7842 33.8141 12.8273 33.7278 12.9136L31.083 14.7966C30.8961 14.969 30.6087 14.969 30.4218 14.7966L27.7626 12.9136C27.6763 12.8273 27.547 12.7842 27.432 12.7842H15.6884C15.5446 12.7842 15.4153 12.8417 15.3147 12.9423C11.793 16.7083 9.6369 21.7536 9.60815 27.3164C9.56503 38.8587 18.9082 48.3744 30.4505 48.5468C42.266 48.705 51.8966 39.1893 51.8966 27.4026C51.8966 21.8111 49.7262 16.7227 46.1758 12.9423ZM41.2167 18.4476C43.3584 20.9055 44.6234 24.1109 44.6234 27.6182C44.6234 35.5671 37.9394 42.0641 29.89 41.6329C22.7173 41.2592 17.1977 35.3083 16.9533 28.1213C16.8239 24.4272 18.0313 21.0062 20.2737 18.4476C20.4462 18.2463 20.4318 17.9588 20.245 17.772L16.1052 13.7041L30.1631 23.766C30.5368 24.0678 31.0543 24.0678 31.4136 23.766L45.4571 13.7041L41.2311 17.772C41.0586 17.9588 41.0442 18.2463 41.2167 18.4476Z" fill="#DF696A"/>
</svg>

<svg xmlns="http://www.w3.org/2000/svg" width="62" height="62" fill="none"><path d="M46.176 12.942a.52.52 0 0 0-.374-.158H34.059a.48.48 0 0 0-.331.129l-2.645 1.883c-.187.172-.474.172-.661 0l-2.659-1.883a.48.48 0 0 0-.331-.129H15.688a.52.52 0 0 0-.374.158 21.12 21.12 0 0 0-5.707 14.374c-.043 11.542 9.3 21.058 20.842 21.23a21.15 21.15 0 0 0 21.446-21.144c0-5.591-2.171-10.68-5.721-14.46zm-4.959 5.505c2.142 2.458 3.407 5.663 3.407 9.171 0 7.949-6.684 14.446-14.733 14.015-7.173-.374-12.692-6.325-12.937-13.512-.129-3.694 1.078-7.115 3.32-9.674a.49.49 0 0 0-.029-.676l-4.14-4.068 14.058 10.062c.374.302.891.302 1.25 0l14.043-10.062-4.226 4.068c-.172.187-.187.474-.014.676z" fill="#df696a"/></svg>
